src/16/panel/si-syncthing-11.svg

<svg xmlns="http://www.w3.org/2000/svg" width="16" height="16" version="1.1">
 <defs>
  <style id="current-color-scheme" type="text/css">
   .ColorScheme-Text { color:#dfdfdf; } .ColorScheme-Highlight { color:#4285f4; }
  </style>
 </defs>
 <path style="fill:currentColor" class="ColorScheme-Text" d="M 1.9378223,4.5 A 7,7 0 0 0 4.5,14.062178 7,7 0 0 0 14.062178,11.5 7,7 0 0 0 11.5,1.9378223 7,7 0 0 0 1.9378223,4.5 Z m 1.7320508,1.0000002 a 5,5 0 0 1 5.967255,-2.2223083 1.5,1.5 0 0 1 1.7958839,-0.2238436 1.5,1.5 0 0 1 0.584718,1.9794259 5,5 0 0 1 0.948471,3.5290731 1.5,1.5 0 0 1 0.479951,2.0046407 1.5,1.5 0 0 1 -1.668895,0.70311 5,5 0 0 1 -6.2772569,1.060029 5,5 0 0 1 -0.073428,-0.0447 1.5,1.5 0 0 1 -1.7255896,0.160685 1.5,1.5 0 0 1 -0.5490383,-2.049038 1.5,1.5 0 0 1 0.2901263,-0.357976 5,5 0 0 1 0.227799,-4.5390931 z m 0.8660253,0.4999996 a 4,4 0 0 0 -0.1744474,3.6498057 1.5,1.5 0 0 1 0.8395113,0.1982709 1.5,1.5 0 0 1 0.05048,0.033648 L 7.2636595,8.2988169 A 1.5,1.5 0 0 1 7.3839746,7.0669875 1.5,1.5 0 0 1 8.9560547,6.3440649 L 9.5439456,5.3258083 A 1.5,1.5 0 0 1 9.1948291,4.1883078 4,4 0 0 0 4.5358984,5.9999998 Z m 1.3334397,4.6669772 a 1.5,1.5 0 0 1 0.05481,0.74882 4,4 0 0 0 0.075852,0.04831 4,4 0 0 0 4.9413141,-0.757826 1.5,1.5 0 0 1 -0.267122,-1.1623305 L 9.6559353,8.956055 A 1.5,1.5 0 0 1 7.9330127,9.1160256 1.5,1.5 0 0 1 7.8825315,9.0823656 L 5.8693381,10.666977 Z M 9.82208,6.8440651 a 1.5,1.5 0 0 1 0.333855,1.2459643 L 11.174192,8.67792 A 1.5,1.5 0 0 1 11.981732,8.33 4,4 0 0 0 11.283996,5.7260142 1.5,1.5 0 0 1 10.409971,5.8258042 L 9.8220799,6.844065 Z"/>
</svg>

<svg xmlns="http://www.w3.org/2000/svg" width="16" height="16"><defs><style id="current-color-scheme" type="text/css"></style></defs><path d="M1.938 4.5A7 7 0 0 0 4.5 14.062a7 7 0 0 0 9.562-2.562A7 7 0 0 0 11.5 1.938 7 7 0 0 0 1.938 4.5zm1.732 1a5 5 0 0 1 5.967-2.222 1.5 1.5 0 0 1 1.796-.224 1.5 1.5 0 0 1 .585 1.98 5 5 0 0 1 .948 3.528 1.5 1.5 0 0 1 .48 2.005 1.5 1.5 0 0 1-1.669.703A5 5 0 0 1 5.5 12.33a5 5 0 0 1-.073-.045 1.5 1.5 0 0 1-1.726.161 1.5 1.5 0 0 1-.55-2.049 1.5 1.5 0 0 1 .291-.358A5 5 0 0 1 3.67 5.5zm.866.5a4 4 0 0 0-.175 3.65 1.5 1.5 0 0 1 .84.198 1.5 1.5 0 0 1 .05.034l2.013-1.583a1.5 1.5 0 0 1 .12-1.232 1.5 1.5 0 0 1 1.572-.723l.588-1.018a1.5 1.5 0 0 1-.35-1.138A4 4 0 0 0 4.537 6zm1.333 4.667a1.5 1.5 0 0 1 .055.749 4 4 0 0 0 .076.048 4 4 0 0 0 4.941-.758 1.5 1.5 0 0 1-.267-1.162l-1.018-.588a1.5 1.5 0 0 1-1.723.16 1.5 1.5 0 0 1-.05-.034l-2.014 1.585zm3.953-3.823a1.5 1.5 0 0 1 .334 1.246l1.018.588a1.5 1.5 0 0 1 .808-.348 4 4 0 0 0-.698-2.604 1.5 1.5 0 0 1-.874.1l-.588 1.018z" fill="currentColor" color="#bebebe"/></svg>
